X:1
T:A catch in the Play of the Knight of Malta
T:Henry Purcell
%%score [ 1 2 3 ]
L:1/8
M:4/4
K:G
V:1 treble nm="I"
V:2 treble nm="II"
V:3 treble nm="III"
V:1
|: G A | BA B G c2 B A | G2 F E F2 ED | E2 F G F2 E D | G G G2 D4 | G G G2 D4 | G G G2 D4 | %7
w: At the|close _ of the Eve- ning the|Wat- ches were set, the _|Guards went the Round, and the|Ta- ta- ta- to,|Ta- ta- ta- to,|Ta- ta- ta- to,|
 G G G2 D4 | G G G2 D4 | G G G2 G G G2 | DE D2 G3 G | G G G2 G G G2 | DE D2 G,2 :| %13
w: Ta- ta- ta- to,|Ta- ta- ta- to,|Ta- ta- ta- ta- ta- ta-|too _ was beat, the|Ta- ta- ta- ta- ta- ta-|too _ was beat.|
V:2
|: z G | GF E D CD EF | GA B c d2 z d | d c d e d e d c | B A G B A B c A | B c B c d e d c | %6
w: But|now _ yon- der Stars _ ap- *|pear _ in the Sky, and|Ta- ra- ra- ra, Ra- ra- ra- ra,|Ra- ra- ra- ra, Ra- ra- ra- ra,|Ra- ra- ra- ra, Ra- ra- ra- ra,|
 B A G B A2 z A | B2 B c d4- | d8- | d6 z d | d c B A B A G A | B A B c d2 GA | A2 G A B2 :| %13
w: Ra- ra- ra- ra- ra is|soun- ded on High,|_|* and|Ta- ra- ra- ra, Ra- ra- ra- ra,|Ra- ra- ra- ra- ra, is _|soun- ded on High.|
V:3
|: B c | d2 d d e2 dc | B2 A G A2 GF | G2 AB A2 GF | GFE G F2 z F | GAGA BcBA | GABG G3 F | %7
w: We shall|soon be re- liev'd, then _|drink, drink a- way, then _|drink _ _ _ _ _|_ _ _ a- way, then|drink, _ _ _ _ _ _ _|drink, _ _ _ drink a-|
 G2 z2 A2 B c | B2 c d c2 B A | B6 B B | BA G F GA B c | d3 c B c dG | F3 G G2 :| %13
w: way, here, here's to|you, and to you, and to|you.- Let us|drink, _ let us drink, _ till 'tis|day, let, let us drink _|till 'tis day.|

